src/pos-icons/arrow-bottom-right-thick.svg

<svg height="24" viewBox="0 0 24 24" width="24" xmlns="http://www.w3.org/2000/svg"><path d="m14.89 12.06v-4.95h3.42v11.2h-11.2v-3.42h4.95l-6.37-6.39 2.81-2.81z"/></svg>

<?xml version="1.0" encoding="UTF-8"?><!DOCTYPE svg PUBLIC "-//W3C//DTD SVG 1.1//EN" "http://www.w3.org/Graphics/SVG/1.1/DTD/svg11.dtd"><svg xmlns="http://www.w3.org/2000/svg" xmlns:xlink="http://www.w3.org/1999/xlink" version="1.1" id="mdi-arrow-bottom-right-thick" width="24" height="24" viewBox="0 0 24 24"><path d="M14.89,12.06V7.11H18.31V18.31H7.11V14.89H12.06L5.69,8.5L8.5,5.69L14.89,12.06Z" /></svg>
